icons/mobile/24/svg/print-24.svg

<svg width="24" height="24" viewBox="0 0 24 24" fill="none" xmlns="http://www.w3.org/2000/svg">
<path fill-rule="evenodd" clip-rule="evenodd" d="M12 1C12.9168 1 13.7433 1.10029 14.4609 1.24316L14.7305 1.30859C16.0531 1.69364 17 2.89781 17 4.31543V7.18652C17.9683 7.25888 18.9703 7.3545 20.0029 7.47852C21.1379 7.61451 21.9999 8.57389 22 9.7168V15.2803C21.9999 16.418 21.158 17.3795 20.0283 17.5156C19.0683 17.6316 18.05 17.7257 17 17.8047V18.6855C16.9997 20.1974 15.9223 21.4654 14.4609 21.7568C13.7434 21.8997 12.9168 22 12 22C11.3561 22 10.473 21.9508 9.44824 21.7393C7.99341 21.4377 7.00022 20.1304 7 18.6875V17.8047C6.02801 17.7317 5.03406 17.6445 3.99707 17.5195C2.86215 17.3835 2.00013 16.4241 2 15.2812V9.71777C2.00011 8.57999 2.84095 7.61857 3.9707 7.48242C4.93493 7.36646 5.94588 7.26628 7 7.1875V4.31348C7 2.87036 7.99316 1.56223 9.44824 1.26074C10.473 1.04916 11.3561 1 12 1ZM8.75 18.6875C8.75022 19.3442 9.20196 19.9009 9.80273 20.0254C10.6859 20.2078 11.446 20.25 12 20.25C12.7892 20.25 13.5007 20.1641 14.1191 20.041C14.7833 19.9084 15.2497 19.3411 15.25 18.6855V14.999H8.75V18.6875ZM17.75 10C17.0596 10 16.5 10.5596 16.5 11.25C16.5 11.9404 17.0596 12.5 17.75 12.5C18.4404 12.5 19 11.9404 19 11.25C19 10.5596 18.4404 10 17.75 10ZM12 2.75C11.4462 2.75 10.6855 2.79238 9.80273 2.97461C9.20181 3.09912 8.75 3.6566 8.75 4.31348V7.0791C9.7962 7.02831 10.8803 7 12 7C13.0258 7 14.111 7.02483 15.25 7.08008V4.31543C15.25 3.6596 14.7835 3.0916 14.1191 2.95898C13.5007 2.83586 12.7892 2.75 12 2.75Z" fill="black"/>
</svg>

<!-- This Source Code Form is subject to the terms of the Mozilla Public
   - License, v. 2.0. If a copy of the MPL was not distributed with this
   - file, You can obtain one at http://mozilla.org/MPL/2.0/. -->
<svg xmlns="http://www.w3.org/2000/svg" width="24" height="24" fill="none" viewBox="0 0 24 24">
    <path fill="#000" fill-rule="evenodd" d="M12 1c.917 0 1.743.1 2.46.243l.27.066A3.134 3.134 0 0 1 17 4.315v2.872q1.453.106 3.003.292A2.26 2.26 0 0 1 22 9.717v5.563c0 1.138-.842 2.1-1.972 2.236-.96.116-1.978.21-3.028.289v.88a3.14 3.14 0 0 1-2.54 3.072 12.6 12.6 0 0 1-5.012-.018C7.993 21.438 7 20.13 7 18.687v-.882a67 67 0 0 1-3.003-.285A2.26 2.26 0 0 1 2 15.28V9.718c0-1.138.84-2.1 1.97-2.236A68 68 0 0 1 7 7.187V4.313c0-1.443.993-2.75 2.448-3.052A12.6 12.6 0 0 1 12 1M8.75 18.688c0 .656.452 1.213 1.053 1.337a10.9 10.9 0 0 0 4.316.016 1.39 1.39 0 0 0 1.131-1.355v-3.687h-6.5zm9-8.688a1.25 1.25 0 1 0 0 2.5 1.25 1.25 0 0 0 0-2.5M12 2.75c-.554 0-1.315.042-2.197.225-.601.124-1.053.682-1.053 1.338V7.08a67 67 0 0 1 6.5.001V4.315c0-.655-.466-1.223-1.13-1.356A11 11 0 0 0 12 2.75" clip-rule="evenodd" />
</svg>
